public/icons/markets/uptrend-icon.svg

<svg width="24" height="24" viewBox="0 0 24 24" fill="none" xmlns="http://www.w3.org/2000/svg"><path d="m21 7-8 8-4-4-6 6M13 7h8-8Zm8 0v8-8Z" stroke="#A5A8B6" stroke-width="2" stroke-linecap="round" stroke-linejoin="round"/></svg>

<svg width="24" height="24" viewBox="0 0 24 24" fill="none" xmlns="http://www.w3.org/2000/svg">
<path d="M21 7L13 15L9 11L3 17M13 7H21H13ZM21 7V15V7Z" stroke="#A5A8B6" stroke-width="2" stroke-linecap="round" stroke-linejoin="round"/>
</svg>
